packages/foundations/assets/icons/functional/images/maps/location_pin_14.svg

<svg width="14" height="14" viewBox="0 0 14 14" fill="none" xmlns="http://www.w3.org/2000/svg">
<g clip-path="url(#clip0_186_65)">
<path fill-rule="evenodd" clip-rule="evenodd" d="M3.41028 12.0256C3.41028 11.6443 3.76925 11.3077 4.12823 11.3077H9.87182C10.2757 11.3077 10.5898 11.6218 10.5898 12.0256C10.5898 12.4295 10.2308 12.7436 9.87182 12.7436H4.12823C3.76925 12.7436 3.41028 12.4295 3.41028 12.0256ZM7.00002 1.25641C8.99678 1.25641 10.5898 2.71471 10.5898 4.59932C10.5898 5.27247 10.3654 5.96795 9.93916 6.61862L7.60583 10.2532C7.47114 10.4551 7.22438 10.5897 7.00002 10.5897C6.77566 10.5897 6.5289 10.4551 6.39422 10.2532L4.06088 6.61862C3.63464 5.96795 3.41028 5.27247 3.41028 4.59932C3.41028 2.71471 5.00326 1.25641 7.00002 1.25641ZM7.00002 2.69231C5.76601 2.69231 4.84618 3.5224 4.84618 4.57692C4.84618 4.9359 5.00326 5.36221 5.27249 5.78846L7.00002 8.4359L8.72755 5.78846C8.99678 5.36221 9.15387 5.00324 9.15387 4.57692C9.15387 3.5224 8.23403 2.69231 7.00002 2.69231ZM6.28207 4.84615C6.28207 4.44231 6.5737 4.1282 7.00002 4.1282C7.40387 4.1282 7.71797 4.41983 7.71797 4.84615C7.71797 5.25 7.42634 5.5641 7.00002 5.5641C6.59618 5.5641 6.28207 5.27247 6.28207 4.84615Z" fill="#1A1C1F"/>
</g>
<defs>
<clipPath id="clip0_186_65">
<rect width="14" height="14" fill="white"/>
</clipPath>
</defs>
</svg>

<svg xmlns="http://www.w3.org/2000/svg" width="14" height="14" fill="none"><g clip-path="url(#a)"><path fill="#1A1C1F" fill-rule="evenodd" d="M3.41 12.026c0-.382.36-.718.718-.718h5.744c.404 0 .718.314.718.718s-.36.718-.718.718H4.128c-.359 0-.718-.314-.718-.718M7 1.256c1.997 0 3.59 1.459 3.59 3.343 0 .673-.225 1.369-.65 2.02l-2.334 3.634A.77.77 0 0 1 7 10.59a.77.77 0 0 1-.606-.337L4.061 6.62c-.426-.651-.65-1.347-.65-2.02C3.41 2.715 5.002 1.256 7 1.256m0 1.436c-1.234 0-2.154.83-2.154 1.885 0 .359.157.785.426 1.211L7 8.436l1.728-2.648c.269-.426.426-.785.426-1.211 0-1.055-.92-1.885-2.154-1.885m-.718 2.154c0-.404.292-.718.718-.718.404 0 .718.292.718.718A.695.695 0 0 1 7 5.564a.695.695 0 0 1-.718-.718" clip-rule="evenodd"/></g><defs><clipPath id="a"><path fill="#fff" d="M0 0h14v14H0z"/></clipPath></defs></svg>
